!!!COM: Bach, Johann Sebastian
!!!OPR: Joh. Seb. Bachs vierstimmige Choralgesänge
!!!XEN: Four-part Chorales
!!!OTL: 20. Befiehl du deine Wege
!!!SCT: BWV 272
!!!SCA: Thematisch-systematisches Verzeichnis der musikalischen Werke Johann Sebastian Bach: Bach-Werke-Verzeichnis (Schmieder)
!!!YOR: Bach Gesellschaft Edition xxxix
!!!ENC: Steven Rasmussen
!!!CDT: 1685/3//-1750/7/28/
!!!OCY: Deutschland
!!!YEC: Copyright (c) 1994, 2000 Center for Computer Assisted Research in the Humanities
!!!YEM: Rights to all derivative editions reserved
!!!YEN: United States of America
**kern	**silbe	**kern	**kern	**kern
*I:[SOPRANO]	*I:[SOPRANO]	*I:[ALTO]	*I:[TENORE]	*I:[BASSO]
*>[A,A,B]	*	*>[A,A,B]	*>[A,A,B]	*>[A,A,B]
*>A	*	*>A	*>A	*>A
*clefG2	*	*clefG2	*clefGv2	*clefF4
*k[b-]	*	*k[b-]	*k[b-]	*k[b-]
*F:	*	*F:	*F:	*F:
*M4/4	*	*M4/4	*M4/4	*M4/4
8dL	Be-der	8dL	8AL	8FL
8eJ	.	8c#J	8GJ	8EJ
=1	=1	=1	=1	=1
4f	-fiehlal-	4d	4A	4.D
4e	du-ler-	4B-	4G	.
.	.	.	.	8C#
4f	dei--treu-	4A	4F	8DL
.	.	.	.	8CnJ
4g	-ne-sten	8dL	8FL	8BB-L
.	.	8cJ	8EJ	8CJ
=2	=2	=2	=2	=2
2a	We-Pfle-	2c	2F	2FF
4a;	-ge,-ge	4c;	4F;	4FF;
4cc	unddes,	4c	4G	4E
=3	=3	=3	=3	=3
4bn	wasder	4f	4G#	4D
4a	deinden	4f#	4c	4D#
4a	Her-Him-	4e	8BnL	4E
.	.	.	8cJ	.
4g#	-ze-mel	4e	4d	4EE
=4	=4	=4	=4	=4
2.a;	krÃ¤nkt,lenkt.	2.e;	2.c;	2.AA;
=:|!	=:|!	=:|!	=:|!	=:|!
*>B	*	*>B	*>B	*>B
4a	Der	8eL	4c	4A
.	.	8f#J	.	.
=5	=5	=5	=5	=5
4bn	Wol-	4g#	4d	4A
4cc	-ken,	4a	4e	8AL
.	.	.	.	8GJ
8ddL	Luft	4a	4d	4F#
8ccJ	.	.	.	.
4b	und	4gn	4d	8GL
.	.	.	.	8FnJ
=6	=6	=6	=6	=6
4.cc	Win-	4g	8cL	8EL
.	.	.	8e	8C
.	.	8fL	8d	8D
8b-	.	8gJ	8cJ	8EJ
4a;	-den	4f;	4c;	4F;
4a	gibt	8fL	4c	4FF
.	.	8e-J	.	.
=7	=7	=7	=7	=7
4g	We-	4d	4B-	4BB-
4f	-ge,	4d	4A-	4BBn
4f	Lauf	4c	4.G	4C
4e	und	4c	.	4CC
.	.	.	16AnLL	.
.	.	.	16B-JJ	.
=8	=8	=8	=8	=8
2.f;	Bahn,	2.c;	2.A;	2.FF;
8aL	der	4e	4A	4C#
8gJ	.	.	.	.
=9	=9	=9	=9	=9
4f	wird	4.f	4A	8DL
.	.	.	.	8CJ
4g	auch	.	8dL	8BB-L
.	.	8e	8cJ	8CJ
4a	We-	4.f	4c	8FFL
.	.	.	.	8AAJ
4g	-ge	.	8dL	8BBnL
.	.	8e	8eJ	8C#J
=10	=10	=10	=10	=10
2f	fin-	8eL	8AL	8DL
.	.	[8dJ	8G#	8BB-
.	.	4d]	8A	8AA
.	.	.	8BnJ	8GG#J
4e;	-den,	4c#;	4A;	4AA;
4f	die	4d	4A	4D
=11	=11	=11	=11	=11
4g	dein	8dL	4G	4E
.	.	8c#J	.	.
4f	Fuss	4d	4A	8FL
.	.	.	.	8GJ
4e	ge-	4d	4.A	4A
4e	-hen	4c#	.	4AA
.	.	.	8G	.
=12	=12	=12	=12	=12
2.d;	kann.	2.A;	2.F;	2.D;
==|!	==|!	==|!	==|!	==|!
*-	*-	*-	*-	*-
!!!RWG: Key is interpreted using the Humdrum key tool.
!!!END: 1994/05/09
!!!EMD: Converted from MuseData to Humdrum Dec 19, 2000, by Andreas Kornstaedt using muse2kern.
!!!EED: Craig Stuart Sapp
!!!EEV: 2024/03/31
!!!ONB: Some non-unicode characters
